**kern	**kern	**dynam
*part1	*part1	*part1
*staff2	*staff1	*
*I"Piano	*	*
*clefF4	*clefG2	*
*k[b-]	*k[b-]	*
=1	=1	=1
8GGL	2Bn 2d 2g	.
(16FF#XL	.	.
16GGJJ	.	.
16FF#LL	.	.
16GG	.	.
16FF#	.	.
16GGJJ	.	.
*tremolo	*	*
32FF#LLL	4r	.
32GG)	.	.
32FF#	.	.
32GG)	.	.
32FF#	.	.
32GG)	.	.
32FF#	.	.
32GG)	.	.
32FF#	4B 4d 4g	mf
32GG)	.	.
32FF#	.	.
32GG)	.	.
32FF#	.	.
32GG)	.	.
32FF#	.	.
32GG)JJJ	.	.
*Xtremolo	*	*
=	=	=
(16AA-XLL	2c 2e-X 2g	.
16GG	.	.
16AA-	.	.
16GGJ	.	.
8AA-J)	.	.
8r	.	.
(16A-XLL	2c 2e- 2g	.
16G	.	.
16A-	.	.
16GJ	.	.
8A-J)	.	.
8r	.	.
=	=	=
(16DLL	2A-X 2c 2f	.
16C#X	.	.
16D	.	.
16C#J	.	.
8DJ)	.	.
8r	.	.
(16DLL	2A- 2c 2f	.
16C#	.	.
16D	.	.
16C#J	.	.
8DJ)	.	.
8r	.	.
=	=	=
(16GLL	2Bn 2d 2f	.
16F#X	.	.
16G	.	.
16F#J	.	.
8GJ)	.	.
8r	.	.
(16GGLL	2B 2d 2f	.
16FF#X	.	.
16GG	.	.
16FF#J	.	.
8GGJ)	.	.
8r	.	.
=	=	=
(16CLL	2G 2d 2e-X	.
16BBn	.	.
16C	.	.
16BBJ	.	.
8CJ)	.	.
8r	.	.
(16CLL	2G 2c 2e-	.
16BB	.	.
16C	.	.
16BBJ	.	.
8CJ)	.	.
8r	.	.
=	=	=
(16FLL	2A 2c 2e-X	.
16En	.	.
16F	.	.
16EJ	.	.
8FJ)	.	.
8r	.	.
(16FFLL	2A 2c 2e-	.
16EE	.	.
16FF	.	.
16EEJ	.	.
8FFJ)	.	.
8r	.	.
=	=	=
*^	*	*
2F 2A-X	(16BB-LL	2d	.
.	16AA	.	.
.	16BB-	.	.
.	16AAJ	.	.
.	8BB-J)	.	.
.	8r	.	.
2F 2A-	(16BB-LL	2d	.
.	16AA	.	.
.	16BB-	.	.
.	16AAJ	.	.
.	8BB-J)	.	.
.	8r	.	.
*v	*v	*	*
=	=	=
*-	*-	*-
!!!system-decoration: {(s1,s2)}
